svg/u1f5a5.svg

<svg viewBox="0 0 128 128" xmlns="http://www.w3.org/2000/svg" xmlns:xlink="http://www.w3.org/1999/xlink">
  <rect fill="#BDBDBD" height="46.27" width="19.02" x="54.66" y="49.02"/>
  <g opacity=".2">
    <path d="m70.12 52.57v39.17h-11.91v-39.17h11.91m3.56-3.55h-19.02v46.28h19.02v-46.28z" fill="#424242"/>
  </g>
  <path d="m42.84 98.6c0-4.43 3.59-8.03 8.03-8.03h26.6c4.43 0 8.03 3.59 8.03 8.03 0 0.77-0.63 1.4-1.4 1.4h-39.86c-0.77 0-1.4-0.63-1.4-1.4z" fill="#BDBDBD"/>
  <g opacity=".2">
    <path d="m77.47 92.94c2.79 0 5.11 2.03 5.57 4.69h-37.75c0.46-2.66 2.78-4.69 5.57-4.69h26.61m0-2.37h-26.6c-4.43 0-8.03 3.59-8.03 8.03 0 0.77 0.63 1.4 1.4 1.4h39.84c0.77 0 1.4-0.63 1.4-1.4 0.01-4.43-3.58-8.03-8.01-8.03z" fill="#424242"/>
  </g>
  <linearGradient id="k" gradientUnits="userSpaceOnUse" x1="64.167" x2="64.167" y1="8.0272" y2="80.6">
    <stop offset=".0040657" stop-color="#eee"/>
    <stop offset="1" stop-color="#BDBDBD"/>
  </linearGradient>
  <path d="m111.99 81.06h-95.65c-4.4 0-7.96-3.56-7.96-7.96v-57.3c0-4.4 3.56-7.96 7.96-7.96h95.65c4.4 0 7.96 3.56 7.96 7.96v57.3c0 4.4-3.56 7.96-7.96 7.96z" fill="url(#k)"/>
  <g opacity=".2">
    <path d="m111.99 11.39c2.43 0 4.41 1.98 4.41 4.41v57.3c0 2.43-1.98 4.41-4.41 4.41h-95.65c-2.43 0-4.41-1.98-4.41-4.41v-57.3c0-2.43 1.98-4.41 4.41-4.41h95.65m0-3.55h-95.65c-4.4 0-7.96 3.56-7.96 7.96v57.3c0 4.4 3.56 7.96 7.96 7.96h95.65c4.4 0 7.96-3.56 7.96-7.96v-57.3c0-4.4-3.56-7.96-7.96-7.96z" fill="#424242"/>
  </g>
  <path d="m108.3 68.24h-88.34c-1.65 0-2.99-1.34-2.99-2.99v-45.77c0-1.65 1.34-2.99 2.99-2.99h88.35c1.65 0 2.99 1.34 2.99 2.99v45.77c-0.01 1.66-1.34 2.99-3 2.99z" fill="#757575"/>
  <linearGradient id="e" gradientTransform="matrix(1 0 0 -1 0 89.343)" gradientUnits="userSpaceOnUse" x1="64.167" x2="64.167" y1="-27.411" y2="-14.092">
    <stop offset="0" stop-color="#9E9E9E"/>
    <stop offset="1" stop-color="#E0E0E0"/>
  </linearGradient>
  <path d="m97.01 103.35h-65.75c-0.93 0-1.79 0.49-2.26 1.3l-7.13 12.14h84.6l-7.21-12.15c-0.47-0.8-1.33-1.29-2.25-1.29z" fill="url(#e)"/>
  <g opacity=".2">
    <path d="m97.01 104.76c0.43 0 0.83 0.23 1.04 0.59l5.94 10.02h-79.66l5.88-10.02c0.22-0.37 0.62-0.6 1.05-0.6h65.75m0-1.4h-65.75c-0.93 0-1.79 0.49-2.26 1.3l-7.13 12.14h84.6l-7.21-12.15c-0.47-0.8-1.33-1.29-2.25-1.29z" fill="#424242"/>
  </g>
  <g fill="#F5F5F5">
    <polygon points="37.91 107.74 33.36 107.74 33.98 106.56 38.54 106.56"/>
    <polygon points="45.02 107.74 40.47 107.74 41.04 106.56 45.71 106.56"/>
    <polygon points="51.79 107.74 47.24 107.74 47.9 106.56 52.44 106.56"/>
    <polygon points="58.52 107.74 53.98 107.74 54.71 106.56 58.96 106.56"/>
    <polygon points="65.16 107.74 60.61 107.74 60.97 106.56 64.78 106.56"/>
    <polygon points="71.93 107.74 67.38 107.74 66.88 106.56 71.18 106.56"/>
    <polygon points="78.88 107.74 74.33 107.74 73.47 106.56 78.02 106.56"/>
    <polygon points="85.57 107.74 81.03 107.74 80.22 106.56 84.77 106.56"/>
    <polygon points="94.68 107.74 87.85 107.74 86.98 106.56 94.01 106.56"/>
    <polygon points="91.2 109.52 95.74 109.52 94.94 108.33 90.32 108.33"/>
    <polygon points="83.76 109.52 88.31 109.52 87.44 108.33 82.9 108.33"/>
    <polygon points="76.98 109.52 81.53 109.52 80.76 108.33 76.22 108.33"/>
    <polygon points="69.69 109.52 74.24 109.52 73.43 108.33 69.14 108.33"/>
    <polygon points="63.19 109.52 67.73 109.52 67.23 108.33 63.4 108.33"/>
    <polygon points="56.68 109.52 61.23 109.52 61.5 108.33 57.09 108.33"/>
    <polygon points="49.56 109.52 54.1 109.52 54.65 108.33 50.29 108.33"/>
    <polygon points="41.64 109.52 46.18 109.52 46.89 108.33 42.34 108.33"/>
    <polygon points="32.37 109.52 39.2 109.52 39.87 108.33 33.02 108.33"/>
    <polygon points="75.43 111.29 79.97 111.29 79.19 110.11 74.64 110.11"/>
    <polygon points="68.18 111.29 72.73 111.29 72.06 110.11 67.8 110.11"/>
    <polygon points="59.64 111.29 64.19 111.29 64.06 110.11 60 110.11"/>
    <polygon points="51.51 111.29 56.06 111.29 56.47 110.11 52.11 110.11"/>
    <polygon points="42.95 111.29 47.5 111.29 48.22 110.11 43.67 110.11"/>
    <polygon points="31.49 111.29 40.56 111.29 41.3 110.11 32.15 110.11"/>
    <polygon points="83.1 111.31 96.72 111.31 95.91 110.08 82.29 110.08"/>
    <polygon points="93.45 113.06 97.98 113.06 97.08 111.88 92.53 111.88"/>
    <polygon points="84.96 113.06 89.51 113.06 88.62 111.88 84.07 111.88"/>
    <polygon points="48.73 113.06 79.61 113.06 78.9 111.88 49.43 111.88"/>
    <polygon points="39.03 113.06 43.58 113.06 44.14 111.88 39.69 111.88"/>
    <polygon points="30.35 113.06 34.9 113.06 35.44 111.88 31 111.88"/>
  </g>
  <path d="m104.96 119.56h-81.59c-0.83 0-1.51-0.67-1.51-1.51v-1.27h84.6v1.27c0.01 0.84-0.67 1.51-1.5 1.51z" fill="#9E9E9E"/>
  <g opacity=".2">
    <path d="m105.76 117.49v0.56c0 0.44-0.36 0.8-0.8 0.8h-81.59c-0.44 0-0.8-0.36-0.8-0.8v-0.56h83.19m0.71-0.7h-84.6v1.27c0 0.83 0.67 1.51 1.51 1.51h81.59c0.83 0 1.51-0.67 1.51-1.51v-1.27h-0.01z" fill="#424242"/>
  </g>
</svg>

<svg style="enable-background:new 0 0 128 128;" viewBox="0 0 128 128" xmlns="http://www.w3.org/2000/svg" xmlns:xlink="http://www.w3.org/1999/xlink">
  <rect height="46.3" style="fill:#BDBDBD;" width="19" x="54.7" y="49"/>
  <g style="opacity:0.2;">
    <path d="M70.1,52.6v39.2H58.2V52.6H70.1 M73.7,49h-19v46.3h19V49z" style="fill:#424242;"/>
  </g>
  <path d="M42.8,98.6c0-4.4,3.6-8,8-8h26.6c4.4,0,8,3.6,8,8c0,0.8-0.6,1.4-1.4,1.4H44.2 C43.5,100,42.8,99.4,42.8,98.6z" style="fill:#BDBDBD;"/>
  <g style="opacity:0.2;">
    <path d="M77.5,92.9c2.8,0,5.1,2,5.6,4.7H45.3c0.5-2.7,2.8-4.7,5.6-4.7H77.5 M77.5,90.6H50.9 c-4.4,0-8,3.6-8,8c0,0.8,0.6,1.4,1.4,1.4h39.8c0.8,0,1.4-0.6,1.4-1.4C85.5,94.2,81.9,90.6,77.5,90.6z" style="fill:#424242;"/>
  </g>
  <linearGradient id="SVGID_1_" gradientTransform="matrix(1 0 0 1 0 -713.8898)" gradientUnits="userSpaceOnUse" x1="64.15" x2="64.15" y1="721.917" y2="794.4897">
    <stop offset="4.065700e-03" style="stop-color:#EEEEEE"/>
    <stop offset="1" style="stop-color:#BDBDBD"/>
  </linearGradient>
  <path d="M112,81.1H16.3c-4.4,0-8-3.6-8-8V15.8c0-4.4,3.6-8,8-8H112c4.4,0,8,3.6,8,8v57.3 C119.9,77.5,116.4,81.1,112,81.1z" style="fill:url(#SVGID_1_);"/>
  <g style="opacity:0.2;">
    <path d="M112,11.4c2.4,0,4.4,2,4.4,4.4v57.3c0,2.4-2,4.4-4.4,4.4H16.3c-2.4,0-4.4-2-4.4-4.4V15.8 c0-2.4,2-4.4,4.4-4.4H112 M112,7.8H16.3c-4.4,0-8,3.6-8,8v57.3c0,4.4,3.6,8,8,8H112c4.4,0,8-3.6,8-8V15.8 C119.9,11.4,116.4,7.8,112,7.8z" style="fill:#424242;"/>
  </g>
  <path d="M108.3,68.2H20c-1.6,0-3-1.3-3-3V19.5c0-1.6,1.3-3,3-3h88.3c1.7,0,3,1.3,3,3v45.8 C111.3,66.9,110,68.2,108.3,68.2z" style="fill:#757575;"/>
  <linearGradient id="SVGID_2_" gradientTransform="matrix(1 0 0 -1 0 89.2328)" gradientUnits="userSpaceOnUse" x1="64.2" x2="64.2" y1="-27.5212" y2="-14.2022">
    <stop offset="0" style="stop-color:#9E9E9E"/>
    <stop offset="1" style="stop-color:#E0E0E0"/>
  </linearGradient>
  <path d="M97,103.3H31.3c-0.9,0-1.8,0.5-2.3,1.3l-7.1,12.1h84.6l-7.2-12.2 C98.8,103.8,97.9,103.3,97,103.3z" style="fill:url(#SVGID_2_);"/>
  <g style="opacity:0.2;">
    <path d="M97,104.8c0.4,0,0.8,0.2,1,0.6l5.9,10H24.3l5.9-10c0.2-0.4,0.6-0.6,1-0.6H97 M97,103.3H31.3 c-0.9,0-1.8,0.5-2.3,1.3l-7.1,12.1h84.6l-7.2-12.2C98.8,103.8,97.9,103.3,97,103.3z" style="fill:#424242;"/>
  </g>
  <g>
    <polygon points="37.9,107.7 33.4,107.7 34,106.6 38.5,106.6 " style="fill:#F5F5F5;"/>
    <polygon points="45,107.7 40.5,107.7 41,106.6 45.7,106.6 " style="fill:#F5F5F5;"/>
    <polygon points="51.8,107.7 47.2,107.7 47.9,106.6 52.4,106.6 " style="fill:#F5F5F5;"/>
    <polygon points="58.5,107.7 54,107.7 54.7,106.6 59,106.6 " style="fill:#F5F5F5;"/>
    <polygon points="65.2,107.7 60.6,107.7 61,106.6 64.8,106.6 " style="fill:#F5F5F5;"/>
    <polygon points="71.9,107.7 67.4,107.7 66.9,106.6 71.2,106.6 " style="fill:#F5F5F5;"/>
    <polygon points="78.9,107.7 74.3,107.7 73.5,106.6 78,106.6 " style="fill:#F5F5F5;"/>
    <polygon points="85.6,107.7 81,107.7 80.2,106.6 84.8,106.6 " style="fill:#F5F5F5;"/>
    <polygon points="94.7,107.7 87.8,107.7 87,106.6 94,106.6 " style="fill:#F5F5F5;"/>
    <polygon points="91.2,109.5 95.7,109.5 94.9,108.3 90.3,108.3 " style="fill:#F5F5F5;"/>
    <polygon points="83.8,109.5 88.3,109.5 87.4,108.3 82.9,108.3 " style="fill:#F5F5F5;"/>
    <polygon points="77,109.5 81.5,109.5 80.8,108.3 76.2,108.3 " style="fill:#F5F5F5;"/>
    <polygon points="69.7,109.5 74.2,109.5 73.4,108.3 69.1,108.3 " style="fill:#F5F5F5;"/>
    <polygon points="63.2,109.5 67.7,109.5 67.2,108.3 63.4,108.3 " style="fill:#F5F5F5;"/>
    <polygon points="56.7,109.5 61.2,109.5 61.5,108.3 57.1,108.3 " style="fill:#F5F5F5;"/>
    <polygon points="49.6,109.5 54.1,109.5 54.7,108.3 50.3,108.3 " style="fill:#F5F5F5;"/>
    <polygon points="41.6,109.5 46.2,109.5 46.9,108.3 42.3,108.3 " style="fill:#F5F5F5;"/>
    <polygon points="32.4,109.5 39.2,109.5 39.9,108.3 33,108.3 " style="fill:#F5F5F5;"/>
    <polygon points="75.4,111.3 80,111.3 79.2,110.1 74.6,110.1 " style="fill:#F5F5F5;"/>
    <polygon points="68.2,111.3 72.7,111.3 72.1,110.1 67.8,110.1 " style="fill:#F5F5F5;"/>
    <polygon points="59.6,111.3 64.2,111.3 64.1,110.1 60,110.1 " style="fill:#F5F5F5;"/>
    <polygon points="51.5,111.3 56.1,111.3 56.5,110.1 52.1,110.1 " style="fill:#F5F5F5;"/>
    <polygon points="43,111.3 47.5,111.3 48.2,110.1 43.7,110.1 " style="fill:#F5F5F5;"/>
    <polygon points="31.5,111.3 40.6,111.3 41.3,110.1 32.2,110.1 " style="fill:#F5F5F5;"/>
    <polygon points="83.1,111.3 96.7,111.3 95.9,110.1 82.3,110.1 " style="fill:#F5F5F5;"/>
    <polygon points="93.4,113.1 98,113.1 97.1,111.9 92.5,111.9 " style="fill:#F5F5F5;"/>
    <polygon points="85,113.1 89.5,113.1 88.6,111.9 84.1,111.9 " style="fill:#F5F5F5;"/>
    <polygon points="48.7,113.1 79.6,113.1 78.9,111.9 49.4,111.9 " style="fill:#F5F5F5;"/>
    <polygon points="39,113.1 43.6,113.1 44.1,111.9 39.7,111.9 " style="fill:#F5F5F5;"/>
    <polygon points="30.4,113.1 34.9,113.1 35.4,111.9 31,111.9 " style="fill:#F5F5F5;"/>
  </g>
  <path d="M105,119.6H23.4c-0.8,0-1.5-0.7-1.5-1.5v-1.3h84.6v1.3C106.5,118.9,105.8,119.6,105,119.6z" style="fill:#9E9E9E;"/>
  <g style="opacity:0.2;">
    <path d="M105.8,117.5v0.6c0,0.4-0.4,0.8-0.8,0.8H23.4c-0.4,0-0.8-0.4-0.8-0.8v-0.6H105.8 M106.5,116.8H21.9 v1.3c0,0.8,0.7,1.5,1.5,1.5H105c0.8,0,1.5-0.7,1.5-1.5V116.8L106.5,116.8z" style="fill:#424242;"/>
  </g>
</svg>
